X: 128
T:Illegible Slip Jig. HSJJ.129
M:9/8
L:1/8
Q:120
S:HSJ Jackson,Wyresdale,Lancs.1823
R:Slip Jig
O:England
A:Lancashire
H:1823
Z:vmp.Chris Partington.
K:D
d>ed fed afd|cde Acd ecA|d>ed fed cBA|Bcd ABG FED:|!
|:G>AG BGE BGE|F>GF BGE Beg|"bar not in MS"G>AG BGE BGE|fga ABcd3:|]
